icons/24px/check.svg

<svg width="24" height="24" viewBox="0 0 24 24" fill="none" xmlns="http://www.w3.org/2000/svg">
<g clip-path="url(#clip0_3496_34878)">
<path d="M13.6951 2.14C6.85411 1.015 1.01511 6.854 2.14011 13.695C2.82111 17.838 6.16311 21.18 10.3061 21.861C17.1471 22.986 22.9861 17.147 21.8611 10.306C21.1791 6.162 17.8381 2.821 13.6951 2.14ZM13.5681 19.85C7.94311 20.926 3.07411 16.057 4.15011 10.432C4.75111 7.287 7.28711 4.751 10.4321 4.15C16.0571 3.074 20.9261 7.943 19.8501 13.568C19.2481 16.713 16.7131 19.248 13.5681 19.85ZM16.0651 8.105L10.0001 14.17L7.92211 12.101C7.76811 11.947 7.51811 11.947 7.36411 12.102L6.51811 12.948C6.36011 13.106 6.36011 13.361 6.51811 13.519L9.71411 16.893C9.87211 17.051 10.1271 17.051 10.2851 16.893L17.4761 9.525C17.6321 9.369 17.6331 9.115 17.4771 8.958L16.6331 8.108C16.4771 7.949 16.2221 7.948 16.0651 8.105Z" fill="black"/>
</g>
<defs>
<clipPath id="clip0_3496_34878">
<rect width="24" height="24" fill="white"/>
</clipPath>
</defs>
</svg>

<?xml version="1.0" encoding="utf-8"?>
<!-- Generator: Adobe Illustrator 25.4.1, SVG Export Plug-In . SVG Version: 6.00 Build 0)  -->
<svg version="1.1" id="Check" xmlns="http://www.w3.org/2000/svg" xmlns:xlink="http://www.w3.org/1999/xlink" x="0px" y="0px"
	 viewBox="0 0 24 24" style="enable-background:new 0 0 24 24;" xml:space="preserve">
<style type="text/css">
	.st0{fill:none;}
</style>
<path class="st0" d="M0,0h24v24H0V0z"/>
<path d="M13.695,2.14C6.854,1.015,1.015,6.854,2.14,13.695c0.681,4.143,4.023,7.485,8.166,8.166
	c6.841,1.125,12.68-4.714,11.555-11.555C21.179,6.162,17.838,2.821,13.695,2.14z M13.568,19.85
	c-5.625,1.076-10.494-3.793-9.418-9.418c0.601-3.145,3.137-5.681,6.282-6.282c5.625-1.076,10.494,3.793,9.418,9.418
	C19.248,16.713,16.713,19.248,13.568,19.85z M16.065,8.105L10,14.17l-2.078-2.069c-0.154-0.154-0.404-0.154-0.558,0.001
	l-0.846,0.846c-0.158,0.158-0.158,0.413,0,0.571l3.196,3.374c0.158,0.158,0.413,0.158,0.571,0l7.191-7.368
	c0.156-0.156,0.157-0.41,0.001-0.567l-0.844-0.85C16.477,7.949,16.222,7.948,16.065,8.105z"/>
</svg>
